assets/images/sensei-circle-logo.svg

<svg viewBox="0 0 34 34" fill="none" xmlns="http://www.w3.org/2000/svg">
<circle cx="17" cy="17" r="17" fill="#26212E"/>
<path fill-rule="evenodd" clip-rule="evenodd" d="M14.0293 21.7458C14.4282 21.4165 14.2667 21.0672 14.8268 20.9388C14.8018 21.2173 15.0212 21.4997 15.1614 21.7458C15.0164 21.2195 15.1583 20.9782 15.2669 20.7142C15.7295 19.5892 14.3865 18.861 13.4709 18.683C13.7837 18.4471 14.0021 18.214 14.3948 18.1737C13.904 18.1664 13.4203 18.2799 12.9866 18.5036C11.5078 19.2649 10.3355 17.7533 11.1108 16.3833C11.5242 15.6509 11.9951 15.639 12.4182 15.1433C12.5197 15.3977 12.5544 15.6762 12.5175 15.9512C12.6497 15.6486 12.6713 15.3122 12.582 14.9994C12.4441 14.5182 12.0491 14.5151 11.9758 13.823C11.9604 13.6782 11.8356 13.9042 11.626 13.7129C11.576 13.6669 11.4753 13.5848 11.4093 13.622C11.2956 13.6848 11.1691 13.6334 11.1005 13.6694C10.9893 13.729 10.9555 13.605 10.8338 13.6927C10.6203 13.8463 10.5975 13.6742 10.3922 13.7006C10.1352 13.7336 9.96653 14.0748 9.8198 13.9059C9.6853 13.7523 9.54654 14.0146 9.449 14.0146C9.3811 14.0146 9.0336 14.4685 8.88087 14.0541C8.76627 13.7444 8.50922 14.3493 8.37216 14.1441C8.32865 14.0788 8.20922 14.2985 8.13273 14.0813C8.1151 14.0314 8.13444 13.9695 7.98999 14.0419C7.70393 14.1844 7.80544 13.9559 7.71445 13.8358C7.60327 13.6884 7.56374 13.6884 7.62345 13.4494C7.67094 13.2595 7.59843 12.9762 7.88932 12.9279C7.96354 12.9157 8.03207 12.9205 8.13444 12.7156C8.26183 12.459 8.44239 12.5819 8.40998 12.4652C8.36249 12.2946 8.60021 12.0644 8.71054 11.9559C8.85726 11.8094 9.0492 11.5954 9.11745 11.3893C9.12968 11.3538 9.19565 11.2516 9.25365 11.1866C9.36171 11.0668 9.39384 11.1826 9.55592 11.123C9.67279 11.0796 9.5818 11.198 9.69696 11.0231C9.73393 10.9675 9.83573 11.02 9.94918 10.9669C10.2934 10.8058 10.3254 10.8085 10.411 10.4343C10.4272 10.3636 10.444 10.3089 10.5165 10.316C10.6623 10.3304 10.6953 10.2419 10.7849 10.2436C10.8648 10.2458 10.8938 10.201 10.9365 10.147C11.175 9.83648 11.3056 10.0681 11.4113 10.044C11.4927 10.0255 11.4412 9.8396 11.6564 9.89752C11.9635 9.97956 11.8629 9.82427 12.0602 9.87509C12.2917 9.9347 12.3076 10.147 12.4666 10.1979C12.6577 10.2583 12.7478 10.482 12.8752 10.4795C13.3233 10.4721 13.188 10.8085 13.4709 10.9413C13.2582 10.7111 13.4871 10.3387 13.0034 10.2904C12.8954 10.2799 12.8576 10.1084 12.6972 10.0281C12.503 9.93159 12.5232 9.72634 12.1731 9.64175C12.2627 9.58213 12.2908 9.64828 12.3457 9.53643C12.4231 9.37859 12.4666 9.47057 12.4964 9.37377C12.5237 9.28378 12.5038 9.23295 12.7157 9.15176C12.9358 9.06717 13.1476 8.87243 13.3435 8.88293C13.5167 8.89173 13.5895 8.76796 13.579 8.61182C13.5684 8.45001 13.5355 8.22802 13.8747 8.29643C14.0786 8.33675 14.0746 8.29956 14.0737 8.15251C14.072 8.00517 14.1269 7.91604 14.3052 7.92228C14.4357 7.92626 14.564 7.91916 14.6132 7.75479C14.6518 7.62449 14.8887 7.59156 15.0152 7.54245C15.4369 7.37922 15.4955 7.61399 15.6101 7.40732C15.7036 7.23927 15.8697 6.95198 16.0574 7.15637C16.0952 7.19754 16.1299 7.22791 16.2564 7.07575C16.3628 6.94943 16.6159 6.78932 16.7063 7.00734C16.7418 7.09335 16.8209 7.18107 16.8891 7.07008C16.9028 7.04822 16.9198 7.02409 16.9599 7.01444C17.0276 6.99911 17.0646 6.9798 17.0987 6.96305C17.389 6.81742 17.5155 6.82707 17.3825 7.14246C17.1925 7.59529 18.436 6.86648 18.0902 7.35821C17.9628 7.53848 18.8051 7.64067 18.9277 7.72271C18.9953 7.76785 18.9922 7.80646 19.1196 7.83229C19.4807 7.90298 19.475 7.8692 19.4969 8.18004C19.5066 8.32085 19.6405 8.24193 19.6405 8.42134C19.6405 9.18781 20.2675 8.80198 20.3699 8.99279C20.3867 9.02487 20.4125 9.05326 20.4754 9.05326C20.673 9.05326 20.6841 9.01153 20.7737 9.18044C20.8101 9.24885 20.8396 9.28348 20.9429 9.31812C21.1015 9.3712 21.0919 9.39051 21.0324 9.51598C20.9608 9.66473 21.0728 9.66246 21.217 9.67609C21.3492 9.68971 21.4129 9.76608 21.5039 9.87395C21.6515 10.0485 21.8812 10.0985 22.0763 10.1998C22.1875 10.2569 22.078 10.3994 22.2657 10.5482C22.4044 10.6577 22.4744 10.6424 22.2881 10.7841C21.5019 11.3838 22.5801 11.2208 22.8813 11.7785C22.949 11.9031 23.0386 12.0584 23.1682 12.2018C23.4679 12.5308 23.3004 12.6219 23.4625 12.8277C23.5561 12.9461 23.4827 12.9177 23.6357 13.0242C23.9968 13.2751 23.4955 13.4418 23.2117 13.3282C23.0821 13.2768 22.9908 13.2058 23.0158 13.2913C23.036 13.3614 23.0013 13.4105 22.9464 13.4636C22.7804 13.6246 23.1094 13.5618 23.1876 13.5496C23.4278 13.5133 24.0702 13.4403 24.0654 13.6833C24.0588 13.9987 24.2468 14.0697 24.3983 14.0904C24.6443 14.125 24.7142 14.1716 24.8496 14.4132C24.9722 14.6312 25.0438 14.5145 25.2332 14.7076C25.3629 14.8404 25.5227 15.0769 25.2599 15.1115C25.1971 15.1195 25.1286 15.1124 25.0995 15.1357C25.0214 15.1961 24.9642 15.2146 24.9141 15.2305C24.5209 15.3599 25.0995 15.4252 25.2414 15.3923C25.3657 15.3642 25.5195 15.3216 25.6395 15.3545C25.716 15.3755 25.7234 15.4681 25.9651 15.5075C26.0456 15.5212 26.0126 15.6483 25.9731 15.7369C25.8343 16.0435 26.2279 15.8808 26.1866 16.1128C26.1633 16.247 26.3317 16.4636 26.0965 16.4685C26.0209 16.4702 25.9418 16.4475 25.9441 16.5167C25.9489 16.668 25.724 16.475 25.5224 16.6825C25.4473 16.7597 25.2693 16.8137 25.1595 16.6697C25.1177 16.615 25.0668 16.5707 24.8709 16.6368C24.6784 16.7021 24.5476 16.9281 24.4632 16.5789C24.4407 16.4872 24.3963 16.4855 24.2738 16.4404C24.1077 16.3785 24.1222 16.0702 23.8788 16.2689C23.7975 16.3342 23.7048 16.3541 23.5936 16.3237C23.4025 16.2715 23.1907 16.3407 23.1728 16.1869C23.1438 15.9302 22.918 15.7491 22.6706 15.7619C22.4747 15.7733 22.3015 15.8102 22.1983 15.5663C22.2748 15.8456 22.4733 15.8641 22.7061 15.8641C22.8987 15.8641 23.0124 15.972 23.0462 16.1869C23.1059 16.5658 23.3178 16.3277 23.5862 16.5057C23.7184 16.5925 23.8134 16.7333 23.8666 16.8968C23.9215 17.0658 24.3591 16.8631 24.2414 17.267C24.1913 17.4408 24.0987 17.5069 23.919 17.6477C23.3856 18.0685 23.2534 17.653 23.096 17.9895C23.0147 18.1641 23.0121 18.0346 22.8355 18.1198C22.5429 18.2598 22.3558 17.9356 22.1414 18.0545C21.8989 18.1896 21.9182 17.9395 21.6731 18.1076C21.4701 18.2467 21.2636 18.0023 21.1661 18.3827C21.0831 18.7077 20.739 18.7151 20.5817 18.5405C20.3309 18.2629 20.406 18.8681 20.0998 18.6186C19.9368 18.4874 19.8168 18.679 19.5783 18.683C19.1389 18.6895 18.9285 18.2791 18.7141 18.5286C18.4585 18.8247 18.2731 18.4834 18.2691 18.1817C18.2651 17.8734 17.2349 17.9764 16.6932 17.8155C16.3935 17.7269 15.452 17.8348 15.7582 17.3141C15.264 17.8734 16.3659 17.8388 16.6659 17.9659C16.8465 18.0414 16.9923 18.1028 17.1672 18.1292C17.3404 18.5533 17.4524 19.0126 17.4695 19.5727C17.5266 19.2653 17.5397 18.9516 17.5073 18.6424C17.4499 18.0934 17.8286 18.9152 17.8741 19.0328C18.1189 19.6782 17.8449 20.8629 17.2252 21.2186C17.0666 20.7054 16.8135 20.2239 16.4765 19.8006C16.8175 20.3616 17.2972 21.5082 16.9127 22.1639C16.5928 22.0328 16.3315 21.7867 16.1816 21.4727C16.2832 21.9499 16.7299 22.4785 17.269 22.3039C18.2095 21.9987 18.2055 22.6374 19.4527 22.7436C20.3592 22.9028 21.6527 22.7436 22.2707 22.7966C22.6077 22.8256 24.0258 23.0789 24.0196 23.4618C23.9945 25.0462 23.4369 25.1299 21.9722 25.2795C21.1212 25.3665 20.4629 25.4015 19.547 25.4382C17.4988 25.5203 15.0348 25.522 13.0697 25.4359C12.1064 25.3938 11.6428 25.386 10.62 25.2412C9.59715 25.0964 9.03612 24.7206 9.05233 23.5393C9.05918 23.1037 10.2571 22.6881 10.6481 22.6406C11.1108 22.5843 11.8481 22.6479 12.5192 22.4742C13.2195 22.2923 13.5126 22.1723 14.0293 21.7458ZM21.1431 13.0744C20.9207 13.0139 21.0754 12.8765 20.6924 13.0543C20.4666 13.159 20.4344 12.8683 20.2064 12.92C19.9775 12.9714 19.8839 12.7406 19.543 12.6818C19.1199 12.6086 19.4253 12.491 18.7548 12.6358C18.6257 12.6631 18.517 12.5064 18.1147 12.5617C17.6432 12.627 17.8084 12.6815 17.5229 12.3968C17.161 12.0363 16.874 12.2784 16.5024 12.1328C16.7893 12.371 16.9918 12.1595 17.3302 12.4499C17.0085 12.6469 16.6338 13.599 16.0494 13.6586C16.6855 13.8122 16.9932 14.1656 17.577 14.2508C18.2483 14.3473 18.7505 14.4189 19.1094 15.0113C19.51 15.6745 19.6937 15.2921 20.2724 15.252C20.6383 15.2271 20.6471 14.9872 20.7077 14.7331C20.7916 14.3822 20.876 14.3661 21.1212 14.3195C21.4041 14.2656 21.3373 14.1867 21.263 14.0958C21.0631 13.8497 21.2881 13.7997 21.4573 13.7466C21.753 13.6541 21.5136 13.6388 21.5136 13.5076C21.1436 13.3796 21.4288 13.1979 21.6353 13.1173C21.8602 13.2669 21.9577 13.2419 22.057 13.222C22.202 13.1914 22.2987 13.2646 22.4212 13.1809C22.2407 13.2019 22.2037 13.1286 22.0513 13.1519C21.9827 13.1624 21.9014 13.1672 21.7595 13.0761C21.521 12.9217 21.4001 13.1437 21.1431 13.0744ZM18.1098 15.4235L16.6582 14.6428C14.9083 13.7021 14.1113 15.0911 13.5494 16.6144L12.5305 17.6605C13.2608 17.1768 13.8565 16.6377 14.6245 16.6425C14.7473 16.6431 16.6416 17.3373 16.3366 16.5113C16.2817 16.3626 16.4552 16.4364 16.5027 16.2232C16.5559 15.9793 16.5752 16.0211 16.7623 16.1766C16.88 16.2749 17.0427 16.3385 16.9929 16.1074C16.971 16.0043 16.9406 15.9118 17.3654 16.1017C17.5662 16.1911 17.492 16.01 17.7692 15.9737C18.1545 15.9237 18.0723 15.5285 18.2537 15.4732C18.3544 15.4417 18.4559 15.5552 18.6456 15.363C18.7115 15.2963 18.7914 15.235 18.9552 15.2802C18.765 15.1763 18.6626 15.2608 18.566 15.3236C18.3712 15.4508 18.2952 15.2714 18.1098 15.4235ZM15.1429 12.6682C15.3556 12.6392 15.5686 12.6168 15.7838 12.6023C15.8256 12.5878 15.8612 12.558 15.8822 12.5177C15.9024 12.4783 15.9055 12.4317 15.8919 12.3888C15.9047 12.2642 15.9772 12.1529 16.087 12.0919L16.0853 12.0879C15.7418 12.0896 15.4645 12.2304 15.1139 12.3905C15.0437 12.4226 15.0809 12.5498 14.9567 12.6954C14.9493 12.8538 14.8415 12.9901 14.6882 13.0318C14.6416 13.0367 14.5981 13.0608 14.5688 13.0977C14.5389 13.1354 14.527 13.1829 14.5341 13.2297C14.444 13.3367 14.2947 13.3731 14.1659 13.3183C13.9 13.2073 13.7015 13.224 13.5701 13.3696C13.7354 13.2714 13.9426 13.2797 14.0996 13.3898C14.2776 13.484 14.4986 13.4341 14.6188 13.2723C14.6356 13.1925 14.7041 13.1346 14.7858 13.1306C14.9743 13.0545 15.0929 12.8998 15.1429 12.6682Z" fill="white"/>
</svg>

<svg viewBox="0 0 34 34" fill="none" xmlns="http://www.w3.org/2000/svg"><circle cx="17" cy="17" r="17" fill="#26212E"/><path fill-rule="evenodd" clip-rule="evenodd" d="M14.03 21.746c.398-.33.237-.679.797-.807-.025.278.194.56.334.807-.145-.526-.003-.768.106-1.032.463-1.125-.88-1.853-1.796-2.031.313-.236.531-.469.924-.51a2.975 2.975 0 00-1.408.33c-1.48.762-2.652-.75-1.876-2.12.413-.732.884-.744 1.307-1.24.102.255.136.533.1.808a1.41 1.41 0 00.064-.952c-.138-.48-.533-.484-.606-1.176-.016-.145-.14.081-.35-.11-.05-.046-.15-.128-.217-.091-.113.063-.24.011-.309.047-.11.06-.144-.064-.266.024-.214.153-.236-.019-.442.008-.257.033-.425.374-.572.205-.135-.154-.273.109-.371.109-.068 0-.415.454-.568.04-.115-.31-.372.294-.509.09-.043-.066-.163.154-.24-.064-.017-.05.002-.111-.142-.04-.286.143-.185-.085-.276-.205-.11-.148-.15-.148-.09-.387.047-.19-.026-.473.265-.521.075-.012.143-.008.245-.212.128-.257.308-.134.276-.25-.048-.171.19-.402.3-.51.147-.147.34-.36.407-.567a.905.905 0 01.137-.202c.108-.12.14-.004.302-.064.117-.043.026.075.141-.1.037-.056.139-.003.252-.056.344-.161.376-.159.462-.533.016-.07.033-.125.106-.118.145.014.178-.074.268-.072.08.002.109-.043.152-.097.238-.31.369-.079.474-.103.082-.019.03-.204.245-.146.307.082.207-.074.404-.023.232.06.248.272.407.323.19.06.28.284.408.281.448-.007.313.33.596.462-.213-.23.016-.602-.468-.65-.108-.011-.145-.183-.306-.263-.194-.096-.174-.302-.524-.386.09-.06.118.006.173-.106.077-.157.12-.065.15-.162.028-.09.008-.141.22-.222.22-.085.432-.28.628-.27.173.01.245-.114.235-.27-.01-.162-.043-.384.296-.316.204.04.2.004.199-.143-.002-.148.053-.237.231-.23.13.003.259-.004.308-.168.039-.13.276-.163.402-.213.422-.163.48.072.595-.135.094-.168.26-.455.447-.25.038.04.073.07.2-.081.106-.127.359-.287.45-.069.035.086.114.174.182.063.014-.022.03-.046.07-.056.069-.015.106-.034.14-.051.29-.146.416-.136.284.18-.19.452 1.053-.277.707.215-.127.18.715.283.838.365.067.045.064.083.192.11.36.07.355.036.377.347.01.14.143.062.143.241 0 .767.627.381.73.572.017.032.043.06.105.06.198 0 .21-.041.299.127.036.069.066.103.169.138.159.053.149.073.09.198-.072.149.04.146.184.16.132.014.196.09.287.198.147.175.377.224.572.326.111.057.002.2.19.348.138.11.208.094.022.236-.786.6.292.437.593.994.068.125.158.28.287.424.3.329.132.42.294.626.094.118.02.09.174.196.36.251-.14.418-.424.304-.13-.051-.221-.122-.196-.037.02.07-.015.12-.07.173-.166.16.163.098.242.086.24-.037.882-.11.877.133-.006.316.182.387.333.407.246.035.316.082.452.323.122.218.194.101.383.295.13.132.29.369.027.403-.063.008-.131.001-.16.025a.529.529 0 01-.186.095c-.393.129.185.194.327.161.125-.028.279-.07.399-.037.076.02.083.113.325.152.08.014.048.141.008.23-.139.307.255.144.214.376-.024.134.145.35-.09.355-.076.002-.155-.02-.153.049.005.151-.22-.042-.422.166-.075.077-.253.13-.362-.013-.042-.055-.093-.1-.29-.033-.192.065-.322.291-.407-.058-.022-.092-.067-.094-.19-.139-.165-.062-.15-.37-.394-.171a.3.3 0 01-.285.055c-.192-.053-.403.017-.421-.137a.481.481 0 00-.502-.425c-.196.011-.37.048-.473-.196.077.28.275.298.508.298.193 0 .306.108.34.323.06.379.272.14.54.319a.729.729 0 01.28.39c.056.17.493-.033.375.371-.05.174-.142.24-.322.38-.533.422-.666.006-.823.343-.081.174-.084.045-.26.13-.293.14-.48-.184-.695-.066-.242.136-.223-.114-.468.054-.203.139-.41-.106-.507.275-.083.325-.427.332-.584.158-.251-.278-.176.327-.482.078-.163-.132-.283.06-.522.064-.44.006-.65-.404-.864-.154-.255.296-.44-.046-.445-.347-.004-.309-1.034-.206-1.576-.366-.3-.09-1.241.019-.935-.502-.494.56.608.525.908.652.18.075.326.137.501.163.173.424.285.884.302 1.444.058-.308.07-.621.038-.93-.057-.55.322.272.367.39.245.645-.03 1.83-.649 2.186a4.329 4.329 0 00-.748-1.418c.34.56.82 1.707.436 2.363a1.398 1.398 0 01-.731-.691c.101.477.548 1.006 1.087.83.94-.304.937.334 2.184.44.906.16 2.2 0 2.818.054.337.029 1.755.282 1.749.665-.026 1.584-.583 1.668-2.048 1.817a36.17 36.17 0 01-2.425.16 83.155 83.155 0 01-6.477-.003c-.964-.042-1.427-.05-2.45-.195-1.023-.145-1.584-.52-1.568-1.702.007-.435 1.205-.85 1.596-.898.463-.057 1.2.007 1.871-.167.7-.182.994-.302 1.51-.728zm7.113-8.672c-.222-.06-.068-.197-.45-.02-.226.105-.259-.186-.487-.134-.229.051-.322-.18-.663-.238-.423-.073-.118-.191-.788-.046-.13.027-.238-.13-.64-.074-.472.065-.307.12-.592-.165-.362-.36-.649-.119-1.02-.264.286.238.489.027.827.317-.321.197-.696 1.149-1.28 1.209.636.153.943.507 1.527.592.671.096 1.173.168 1.532.76.401.664.585.281 1.163.241.366-.025.375-.265.436-.519.084-.35.168-.367.413-.414.283-.053.216-.132.142-.223-.2-.246.025-.296.194-.35.296-.092.057-.107.057-.238-.37-.128-.085-.31.121-.39.225.149.323.124.422.104.145-.03.242.043.364-.041-.18.02-.217-.052-.37-.03-.068.011-.15.016-.291-.075-.239-.154-.36.068-.617-.002zm-3.033 2.35l-1.452-.781c-1.75-.94-2.547.448-3.109 1.971l-1.018 1.046c.73-.483 1.325-1.022 2.093-1.018.123.001 2.018.695 1.713-.13-.055-.15.118-.076.166-.289.053-.244.072-.202.26-.046.117.098.28.162.23-.07-.022-.103-.052-.195.372-.005.201.09.127-.092.404-.128.386-.05.303-.446.485-.5.1-.032.202.081.392-.111.066-.067.145-.128.31-.083-.191-.104-.293-.02-.39.044-.195.127-.27-.053-.456.1zm-2.967-2.756c.213-.029.426-.051.64-.066a.176.176 0 00.1-.084.17.17 0 00.009-.13.384.384 0 01.195-.296l-.002-.004c-.343.002-.62.142-.971.303-.07.032-.033.159-.157.304a.366.366 0 01-.269.337.177.177 0 00-.12.066.17.17 0 00-.034.132.319.319 0 01-.368.088c-.266-.11-.465-.094-.596.052a.488.488 0 01.53.02.41.41 0 00.519-.118.179.179 0 01.167-.141c.188-.076.307-.231.357-.463z" fill="#fff"/></svg>
